X:408
T:B408-  The Sages of Old
Q:1/4=120
L:1/4
M:3/4
K:D
(.d/e/)|f(g/f/) (e/d/)|a2(b/a/)|gga|f2(g/f/)|\
e(f/e/) (d/c/)|B3/2c/d|cAB/ c/|d(d/e/) (d/c/)|\
B2(c/d/)|ef(e/d/)|c2b|^gea|\
a3/2b/^g|aa(g/f/)|gga|b2a/ g/|\
(f/g/)^g3/2(f/4g/4)|a2(e/4f/4g/)|f(e/d/)g|g3/2a/f|\
ggb|gge|c2a|fd(B/4c/4d/)|\
c3/2B/A|a3/2g/ (f/4g/4a/)|ge3/2d/|dd|]
